src/assets/images/404.svg

<svg width="107" height="140" viewBox="0 0 107 140" fill="none" xmlns="http://www.w3.org/2000/svg">
<path d="M104.388 73.6082C101.71 85.3629 96.1359 95.0064 88.7786 103.989L53.7468 140L23.4369 110.201C16.2241 102.345 9.82707 94.4176 5.61776 84.6161C1.01858 72.7538 -0.591472 60.4965 0.188296 47.6504C13.105 49.0075 25.1986 51.3699 35.8121 57.7104C44.5484 62.9235 48.9094 71.7485 53.0031 81.8588C60.1438 57.7391 80.3817 48.8065 105.97 47.8227C106.453 56.224 105.897 64.532 104.396 73.6082H104.388Z" fill="#213B58" fill-opacity="0.12"/>
<path d="M53.1444 39.206C64.0304 39.206 72.8552 30.4295 72.8552 19.603C72.8552 8.77658 64.0304 0 53.1444 0C42.2584 0 33.4336 8.77658 33.4336 19.603C33.4336 30.4295 42.2584 39.206 53.1444 39.206Z" fill="#213B58" fill-opacity="0.12"/>
</svg>

<svg xmlns="http://www.w3.org/2000/svg" width="107" height="140" fill="none" viewBox="0 0 107 140"><path fill="#213b58" fill-opacity=".12" d="M104.388 73.608c-2.678 11.755-8.252 21.398-15.61 30.381L53.748 140l-30.31-29.799c-7.213-7.856-13.61-15.783-17.82-25.585C1.02 72.754-.59 60.496.189 47.65c12.917 1.358 25.01 3.72 35.624 10.06 8.735 5.213 13.097 14.04 17.19 24.15 7.14-24.12 27.379-33.052 52.967-34.036.483 8.401-.073 16.709-1.574 25.785zM53.144 39.206c10.886 0 19.711-8.777 19.711-19.603S64.03 0 53.145 0C42.257 0 33.433 8.777 33.433 19.603s8.824 19.603 19.71 19.603"/></svg>
